X: 48
T:Margaret's Waltz (Variation)
M:9/8
L:1/8
Q:100
R:Waltz
K:A
[A,2A2]F|"A"[A,3E3]-E2F [D2A2][EB]|"(F#m)"[E6c6][E2A2][Ec]|
"D"[E2B2][A,A] [A,3F3] [D2A2][DB]|"E"[E6B6] [A,2A2]F|
|"A"[A,3E3]-E2F [D2A2][EB]|"(F#m"[E6c6][E2e2]A|
"E(D)"[E6c6]      "(E)"[D3B3]|"A"[A,6A6]:|!
c2d|"A"[A3e3][d3f3][e3g3]|"D"[c3a3][B3g3][c3a3]|
"(Bm)"[d2f2][Ae][F3d3][d2f2][Ae]|"E"[E6e6]A2[E2c2]B|
"A(F#m)"[D3A3] A2 [GB][A2c2][Fd]|"(C#m)"[E6e6][E2c2][EA]|
"D"[d2f2][Ee][Ed][E2c2][D2A2][Ec]|"E"[E6B6][E2c2][Fd]|
1 "A"eAe fAf gAg|"D"aAa gAg fAf|"A"eAe dAd ~c2A|"E"B6[A,2A2]F|
"A"[A,3E3][A,2E2][A,F][D2A2][EB]|"(F#m)"[E6c6]e2A|
"E(D)"[E6c6]      "(E)"[E2B2][DA]|"A"[E6A6]:|
2 "A"e2A f2A g2A|"D"a2A g2A f2A|"A"e2A d2A ~c2A|"E"B6A2F|
"A"[A,3E3][A,2E2][A,F][D2A2][EB]|"(F#m)"[E6c6]e2A|
"E(D)"[E6c6]      "(E)"[E2B2][DA]|"A"[E6A6]|
